X: 42829
T: Wideopen Lasses
R: three-two
M: 3/2
K: Gmajor
|:g4 d3c B2G2|E2A2- A2G2 F2D2|g4 d3c B2G2|E2G2 FGAF G4:|
|:G2D2 A2D2 B2D2|E2A2- A2G2 F2D2|G2D2 A2D2 B2D2|E2G2 FGAF G4:|
B2d2 cdec B2G2|E2A2- A2G2 F2D2|B3d cdec B2G2|E2G2 FGAF G4|
B2d2 cdec B2G2|E2A2- A2G2 F2D2|GABG ABcA Bcd2|e2g2 fgaf g4||

